packages/dnb-ui-lib/assets/icons/card_medium.svg

<svg width="24" height="24" viewBox="0 0 24 24" fill="none" xmlns="http://www.w3.org/2000/svg">
<path d="M4.5 7.25C4.08579 7.25 3.75 7.58579 3.75 8C3.75 8.41421 4.08579 8.75 4.5 8.75V7.25ZM8.25 8.75C8.66421 8.75 9 8.41421 9 8C9 7.58579 8.66421 7.25 8.25 7.25V8.75ZM4.5 15.25C4.08579 15.25 3.75 15.5858 3.75 16C3.75 16.4142 4.08579 16.75 4.5 16.75V15.25ZM19.5 16.75C19.9142 16.75 20.25 16.4142 20.25 16C20.25 15.5858 19.9142 15.25 19.5 15.25V16.75ZM2.75 5.25H21.25V3.75H2.75V5.25ZM22.5 6.5V17.5H24V6.5H22.5ZM21.25 18.75H2.75V20.25H21.25V18.75ZM1.5 17.5V6.5H0V17.5H1.5ZM4.5 8.75H8.25V7.25H4.5V8.75ZM4.5 16.75H19.5V15.25H4.5V16.75ZM2.75 18.75C2.05964 18.75 1.5 18.1904 1.5 17.5H0C0 19.0188 1.23122 20.25 2.75 20.25V18.75ZM22.5 17.5C22.5 18.1904 21.9404 18.75 21.25 18.75V20.25C22.7688 20.25 24 19.0188 24 17.5H22.5ZM21.25 5.25C21.9404 5.25 22.5 5.80964 22.5 6.5H24C24 4.98122 22.7688 3.75 21.25 3.75V5.25ZM2.75 3.75C1.23122 3.75 0 4.98122 0 6.5H1.5C1.5 5.80964 2.05964 5.25 2.75 5.25V3.75Z" fill="black"/>
</svg>

<svg width="24" height="24" viewBox="0 0 24 24" fill="none" xmlns="http://www.w3.org/2000/svg"><path d="M4.5 7.25a.75.75 0 000 1.5v-1.5zm3.75 1.5a.75.75 0 000-1.5v1.5zm-3.75 6.5a.75.75 0 000 1.5v-1.5zm15 1.5a.75.75 0 000-1.5v1.5zM2.75 5.25h18.5v-1.5H2.75v1.5zM22.5 6.5v11H24v-11h-1.5zm-1.25 12.25H2.75v1.5h18.5v-1.5zM1.5 17.5v-11H0v11h1.5zm3-8.75h3.75v-1.5H4.5v1.5zm0 8h15v-1.5h-15v1.5zm-1.75 2c-.69 0-1.25-.56-1.25-1.25H0a2.75 2.75 0 002.75 2.75v-1.5zM22.5 17.5c0 .69-.56 1.25-1.25 1.25v1.5A2.75 2.75 0 0024 17.5h-1.5zM21.25 5.25c.69 0 1.25.56 1.25 1.25H24a2.75 2.75 0 00-2.75-2.75v1.5zm-18.5-1.5A2.75 2.75 0 000 6.5h1.5c0-.69.56-1.25 1.25-1.25v-1.5z" fill="#000"/></svg>
